icon/lg/botanalytics.svg

<?xml version="1.0" encoding="UTF-8"?>
<svg viewBox="0 0 256 300" version="1.1" xmlns="http://www.w3.org/2000/svg" xmlns:xlink="http://www.w3.org/1999/xlink" preserveAspectRatio="xMidYMid" height="1em" width="1em">
  <g>
    <path d="M91.3515335,212.095914 C94.2060443,212.095914 96.5428604,214.41116 96.5428604,217.272861 L96.5284799,246.652031 C96.5284799,249.506542 98.333221,250.369367 100.547804,248.557435 L141.08617,215.374647 C143.300753,213.562716 147.44231,212.088724 150.296821,212.088724 L217.359847,212.131865 C225.326593,211.664502 232.099764,202.274096 232.581508,194.753144 L232.495225,101.050414 C232.495225,98.1959029 234.832041,96.4702541 237.693742,96.4702541 L250.67925,96.4702541 C253.53376,96.4702541 255.870576,98.1887127 255.870576,101.050414 L256,197.118721 C256,217.891218 240.289406,240.274321 216.921245,240.274321 L158.651837,240.274321 C155.797326,240.274321 151.648579,239.346785 149.441186,241.151526 L77.1508819,299.111755 C74.9362993,300.923686 73.1315583,299.464075 73.1315583,296.609564 L73.1603191,240.94301 C73.1603191,238.095689 70.823503,235.600689 67.9689922,235.600689 L41.9188855,235.564738 C21.6137513,235.564738 1.10729132,215.719777 0,195.400262 L0,154.955368 C0,152.093667 3.72452533,153.984691 6.58622627,153.984691 L19.5717335,153.984691 C22.4262442,153.984691 24.7630603,154.207587 24.7630603,157.062098 L24.8996742,194.96166 C24.8996742,202.281287 34.0456129,211.434415 41.6025166,212.599228 L91.3515335,212.095914 Z M57.7445231,132.176804 C56.4143355,134.707756 52.9917987,136.771344 50.1300977,136.771344 L6.58622627,136.771344 C3.73171554,136.771344 1.39489945,134.434528 1.39489945,131.580017 L1.39489945,118.59451 C1.39489945,115.739999 3.73171554,113.403183 6.58622627,113.403183 L36.0085384,113.403183 C38.8630491,113.403183 42.2927761,111.332404 43.6229637,108.808643 L83.0180879,33.9801968 C84.3482755,31.4564355 86.6779014,31.3629628 88.1950343,33.7788711 L121.449725,86.6843874 C122.974048,89.1074859 125.346815,89.0355839 126.727334,86.5333931 L173.111336,2.60214942 C174.491855,0.107148855 176.886193,0.0280566185 178.432086,2.42958454 L210.234356,51.8981836 C211.780249,54.2997115 215.375351,56.262637 218.237052,56.262637 L250.672059,56.262637 C253.52657,56.262637 255.863386,58.5994531 255.863386,61.461154 L255.863386,74.4394711 C255.863386,77.2939818 253.52657,79.6379881 250.672059,79.6379881 L205.460061,79.6379881 C202.60555,79.6379881 199.003258,77.6750626 197.457364,75.2735347 L179.913268,48.058615 C178.367374,45.6570871 175.965847,45.7361793 174.585327,48.2383701 L128.021571,132.457222 C126.641052,134.952222 124.268284,135.016934 122.743961,132.608216 L90.0141557,80.5008125 C88.4970228,78.0849042 86.1602067,78.1711866 84.8300191,80.694948 L57.7445231,132.176804 Z" fill="#0385CD" fill-rule="nonzero"/>
  </g>
</svg>

<svg width="256" height="300" xmlns="http://www.w3.org/2000/svg" preserveAspectRatio="xMidYMid"><path d="M91.352 212.096c2.854 0 5.19 2.315 5.19 5.177l-.014 29.379c0 2.855 1.805 3.717 4.02 1.905l40.538-33.182c2.215-1.812 6.356-3.286 9.21-3.286l67.064.043c7.967-.467 14.74-9.858 15.222-17.379l-.087-93.703c0-2.854 2.337-4.58 5.199-4.58h12.985c2.855 0 5.192 1.719 5.192 4.58L256 197.12c0 20.772-15.71 43.155-39.079 43.155h-58.27c-2.854 0-7.002-.927-9.21.878l-72.29 57.96c-2.215 1.812-4.02.352-4.02-2.502l.03-55.667c0-2.847-2.337-5.342-5.192-5.342l-26.05-.036C21.614 235.565 1.107 215.72 0 195.4v-40.445c0-2.861 3.725-.97 6.586-.97h12.986c2.854 0 5.191.223 5.191 3.077l.137 37.9c0 7.32 9.146 16.472 16.703 17.637l49.749-.503Zm-33.607-79.92c-1.33 2.532-4.753 4.595-7.615 4.595H6.586c-2.854 0-5.191-2.336-5.191-5.191v-12.985c0-2.855 2.337-5.192 5.191-5.192H36.01c2.854 0 6.284-2.07 7.614-4.594L83.018 33.98c1.33-2.524 3.66-2.617 5.177-.201l33.255 52.905c1.524 2.423 3.897 2.352 5.277-.15l46.384-83.932c1.38-2.495 3.775-2.574 5.321-.172l31.802 49.468c1.546 2.402 5.141 4.365 8.003 4.365h32.435c2.855 0 5.191 2.336 5.191 5.198V74.44c0 2.855-2.336 5.199-5.19 5.199H205.46c-2.854 0-6.457-1.963-8.003-4.364l-17.544-27.215c-1.546-2.402-3.947-2.323-5.328.18l-46.563 84.218c-1.38 2.495-3.754 2.56-5.278.151l-32.73-52.107c-1.517-2.416-3.854-2.33-5.184.194l-27.085 51.482Z" fill="#0385CD"/></svg>
